src/actions/24/gnumeric-object-checkbox.svg

<svg viewBox="0 0 24 24" xmlns="http://www.w3.org/2000/svg">
 <defs>
  <style type="text/css">.ColorScheme-Text {
        color:#2e3440;
      }</style>
 </defs>
 <path class="ColorScheme-Text" d="m6 4c-1.108 0-2 0.892-2 2v12c0 1.108 0.892 2 2 2h12c1.108 0 2-0.892 2-2v-12c0-1.108-0.892-2-2-2h-12zm0 1h12c0.554 0 1 0.446 1 1v12c0 0.554-0.446 1-1 1h-12c-0.554 0-1-0.446-1-1v-12c0-0.554 0.446-1 1-1zm1 1c-0.554 0-1 0.446-1 1v10c0 0.554 0.446 1 1 1h10c0.554 0 1-0.446 1-1v-10c0-0.554-0.446-1-1-1h-10z" fill="currentColor"/>
</svg>

<svg xmlns="http://www.w3.org/2000/svg" viewBox="0 0 24 24">
  <defs id="defs3051">
    <style type="text/css" id="current-color-scheme">
      .ColorScheme-Text {
        color:#2e3440;
      }
      </style>
  </defs>
 <path style="fill:currentColor;fill-opacity:1;stroke:none" 
     d="M 6 4 C 4.892 4 4 4.8919999 4 6 L 4 18 C 4 19.108 4.892 20 6 20 L 18 20 C 19.108 20 20 19.108 20 18 L 20 6 C 20 4.8919999 19.108 4 18 4 L 6 4 z M 6 5 L 18 5 C 18.554 5 19 5.4459999 19 6 L 19 18 C 19 18.554 18.554 19 18 19 L 6 19 C 5.446 19 5 18.554 5 18 L 5 6 C 5 5.4459999 5.446 5 6 5 z M 7 6 C 6.446 6 6 6.446 6 7 L 6 17 C 6 17.554 6.446 18 7 18 L 17 18 C 17.554 18 18 17.554 18 17 L 18 7 C 18 6.446 17.554 6 17 6 L 7 6 z "
     class="ColorScheme-Text"
     />
</svg>
